X:1
T:RVW2/1/32 Milkmaids-0
T:RVW2/1/32 Milkmaids-0
T:Sung by a gipsy at Hooton Roberts Sept. 1907 (1 of 3)
T:Transcribed by Simon Furey and Lewis Jones
C:Transcribed by Simon Furey and Lewis Jones
L:1/8
Q:1/4=92
M:6/8
K:F
V:1 treble 
V:1
"^(editorial suggestion)" CDE | F2 G/A/ G2 F | G2 B/c/ B2 A | F6- | F3"^(a)" e2 d | c3 B2 A | %6
 F2 A c2 A | G6- | G3"^(b)" e2 d | c2 d B2 c | F2 A c2 d | c2 B A2 F | (F2 E) CDE | F3 G2 F | %14
 G2 A B2 A | F6- | F3 || CDE | F2 G/A/ G2 F | G2 B/c/ B2 A | F6- | F3"^(a) var." _e2 d | c3 B2 A | %23
 F2 A c2 A | G6- | G3"^(b) var." _e2 d | c2 d B2 c | F2 A c2 d | c2 B A2 F | (F2 E) CDE | F3 G2 F | %31
 G2 A B2 A | F6- | F3 |] %34

